X:1
T:Title
%%score ( 1 2 ) { 3 | 4 }
L:1/8
Q:1/4=105
M:4/4
K:G
V:1 treble nm="Grand Piano, Soprano"
V:2 treble 
V:3 bass nm="Choir Pad, Port Lavaca, J. S. Boyd"
V:4 bass 
V:1
 [DB]2 [B,G]>[DF] [CE]2 [EG]2 | [CE]2 [G,B,]2 [B,D]4 | [B,D]2 [DG]>[DA] [DB]2 [Dd]2 | %3
w: By~J.~S.~Boyd,~1881 * * * *|||
 [DA]2 [Dc]2 [GB]2 [FA]2 | [GB]2 [DG]>[DF] [CE]2 [EG]2 | [B,D]2 [G,B,]2 [B,D]4 | %6
w: |||
 [DF]2 [FA]>[Fc] [GB]2 [DA]2 | [DG]6 z2 | [FA]2 [DF]>[EG] [FA]2 [FA]2 | [GB]2 [GB]2 [FA]4 | %10
w: ||||
 [FA]2 [E^c]>[Fd] [Ge]2 [Ec]2 | [Fd]2 [A^c][GB] [FA]4 | [FA]2 [DF]>[EG] [FA]2 [Fd]2 | %13
w: |||
 [DB]2 Bc [Dd]4 | [E^c]2 [Ec]>[Ec] [DB]2 [Ec]2 | [Fd]4 [Dc]4 | [DB]2 [B,G]>[DF] [CE]2 [EG]2 | %17
w: ||||
 [CE]2 [G,B,]2 [B,D]4 | [B,D]2 [DG]>[DA] [DB]2 [Dd]2 | [DA]2 [Dc]2 [GB]2 [FA]2 | %20
w: |||
 [GB]2 [DG]>[DF] [CE]2 [EG]2 | [B,D]2 [G,B,]2 [B,D]4 | [DF]2 [FA]>[Fc] [GB]2 [DA]2 | [DG]8 |] %24
w: ||||
V:2
 x8 | x8 | x8 | x8 | x8 | x8 | x8 | x8 | x8 | x8 | x8 | x8 | x8 | z2 D2 z4 | x8 | x8 | x8 | x8 | %18
 x8 | x8 | x8 | x8 | x8 | x8 |] %24
V:3
 G,2 G,>G, G,2 G,2 | G,2 G,2 G,4 | G,2 G,>F, G,2 G,2 | F,2 A,2 D4 | D2 B,>A, G,2 G,2 | %5
 G,2 G,2 G,4 | A,2[K:treble] D>D D2 C2 | B,6 z2 | A,2 A,>A, A,2 D2 | D2 D2 D4 | %10
 D2 A,>[K:bass]A, A,2 A,2 | A,2 A,2 A,4 | A,2 A,>A, A,2 A,2 | G,2 G,A, B,4 | A,2 A,>A, A,2 A,2 | %15
 A,8 | G,2 G,>G, G,2 G,2 | G,2 G,2 G,4 | G,2 G,>F, G,2 G,2 | F,2 A,2 D4 | D2 B,>A, G,2 G,2 | %21
 G,2 G,2 G,4 | A,2[K:treble] D>D D2 C2 | B,8 |] %24
V:4
 z8 | z8 | G,,2 B,,>D, z2 B,,2 | D,2 D,2 D,4 | G,2 G,>G, z4 | z4 G,,4 | D,2 D,>D, D,2 D,2 | %7
 G,,6 z2 | D,2 D,>D, D,2 D,2 | G,2 G,2 D,4 | A,2 z2 z4 | D,2 D,2 D,4 | D,2 D,>D, D,2 D,2 | z4 G,4 | %14
 z8 | D,8 | z8 | z8 | G,,2 B,,>D, z2 B,,2 | D,2 D,2 D,4 | G,2 G,>G, z4 | z4 G,,4 | %22
 D,2 D,>D, D,2 D,2 | G,,8 |] %24

